X:1
T:The Glorious Day Is Coming
T:The Glorious Day Is Coming
T:John Robson Sweney
T:Francis A. Simkins, 1887
T:Public Domain Courtesy of the Cyber Hymnal™
T:Public Domain Courtesy of the Cyber Hymnal™
C:John Robson Sweney
Z:Public Domain
Z:Courtesy of the Cyber Hymnal™
%%score ( 1 2 ) ( 3 4 )
L:1/8
Q:1/4=108
M:4/4
K:C
V:1 treble 
V:2 treble 
V:3 bass 
V:4 bass 
V:1
 [CE]>[DF] | [EG]2 [Ec]2 [Fd]2 [Ec]2 | [Fc]2 [FB]4 ([DB][Ec]) | [Fd]2 [Fd]2 [Ge]2 [Fd]2 | %4
w: 1.~Oh, the|glor- ious day is|com- ing, By *|faith its dawn- ing|
w: 2.~Yes, the|Lord is sure- ly|com- ing, His *|king- dom draw- eth|
w: 3.~Then the|Con- queror of the|Na- tions Shall *|ban- ish ev- ery|
 [Ec]6 [EG]2 | [FA]3 [Fc] [Fc]2 [FA]2 | [FA]2 [EG]2 [EG]2 [Ec]2 | [DB]3 [DB] [^Fc]2 [Fc]2 | %8
w: see! When|right- eous- ness shall|rule the world, And|men in- deed be|
w: nigh, When|gloom and night shall|flee a- way, And|er- ror writhe and|
w: wrong, And|earth, now sad with|sighs and tears, Shall|then be filled with|
 [Gd]6 G2 | [Ge]3 [Ge] [Ge]2 [Fd]2 | [Ec]2 [Ec]2 [Ec]2 [EG]2 | [FA]3 [Fc] [Fc]2 [FA]2 | %12
w: free: When|wea- ry souls shall|cease to mourn, By|weight of woe op-|
w: die. Lo,|He shall come, and|by His power Re-|deem the world from|
w: song: And|we shall lay our|ar- mor down, Our|earth- ly war- fare|
 [EG]6 [EG]2 | [Ec]3 [Ec] [Gd]2 [Ge]2 | [Ff]2 [FA]2 [Fd]2 [Fc]2 | [FB]3 [FB] [FA]2 [FB]2 | [Ec]6 || %17
w: pressed; When|Christ shall reign in|ev- ery heart, By|ev- ery tongue con-|fessed.|
w: sin; The|“thou- sand years” so|long fore- told In|that day shall be-|gin.|
w: o’er, Called|home to be with|God, and reign With|Him for- ev- er-|more.|
"^Refrain" [Ge]>[Fd] | [Ec][Ec][Ec][EG] [FA][Fc][Fc][FA] | [EG]4 [CE]2 [CE]>[DF] | %20
w: |||
w: Oh, the|glor- ious day is com- ing— Yes, ’tis|com- ing! Hal- le-|
w: |||
 [EG][Gc][Gc][Gd] [Ge][Ge][Gd][^Fc] | [Gd]6 [Ge]>[Fd] | [Ec][Ec][Ec][EG] [FA][Fc][Fc][FA] | %23
w: |||
w: lu- jah! Shout, O Earth, the joy- ful|cry! See! the|glo- ry beams are ev- en now ill-|
w: |||
 [EG]4 [CE]2 ([Gc]>[Ad]) | [Ge][Ge][Fd][Ec] [Fd][Fd][Ec][DB] | [Ec]6 |] %26
w: |||
w: um- ing The *|glow- ing ban- ners of the morn- ing|sky.|
w: |||
V:2
 x2 | x8 | x8 | x8 | x8 | x8 | x8 | x8 | x6 G2 | x8 | x8 | x8 | x8 | x8 | x8 | x8 | x6 || x2 | x8 | %19
 x8 | x8 | x8 | x8 | x8 | x8 | x6 |] %26
V:3
 [C,G,]>[C,G,] | [C,C]2 [C,G,]2 [C,G,]2 [C,G,]2 | [D,G,]2 [D,G,]4 [G,,G,]2 | %3
 [G,,G,]2 [G,,G,]2 [G,,G,]2 [G,,G,]2 | [C,G,]6 [C,C]2 | [F,C]3 [F,A,] [F,A,]2 [F,C]2 | %6
 [C,C]2 [C,C]2 [C,C]2 [C,G,]2 | [D,G,]3 [D,G,] [D,A,]2 [D,A,]2 | [G,B,]6 [G,B,]2 | %9
 [C,C]3 [C,C] [C,C]2 [C,G,]2 | [C,G,]2 [C,G,]2 [C,G,]2 [C,C]2 | [F,C]3 [F,A,] [F,A,]2 [F,C]2 | %12
 [C,C]6 [C,C]2 | [C,G,]3 C [B,D]2 [_B,C]2 | [A,C]2 [F,C]2 [F,A,]2 [F,A,]2 | %15
 [G,B,]3 [G,,G,] [G,,G,]2 [G,,G,]2 | [C,G,]6 || [C,C]>[C,G,] | %18
 [C,G,][C,G,][C,G,][C,C] [F,C][F,A,][F,A,][F,C] | [C,C]4 [C,G,]2 [C,G,]>[C,G,] | %20
 [C,C][E,C][E,C][G,B,] CC[B,D][A,D] | [G,B,]6 G,>G, | %22
 [C,G,][C,G,][C,G,][C,C] [F,C][F,A,][F,A,][F,C] | [C,C]4 [C,G,]2 C2 | %24
 [G,C][G,C]G,G, [G,,G,][G,,G,][G,,G,][G,,G,] | [C,G,]6 |] %26
V:4
 x2 | x8 | x8 | x8 | x8 | x8 | x8 | x8 | x8 | x8 | x8 | x8 | x8 | x3 C x4 | x8 | x8 | x6 || x2 | %18
 x8 | x8 | x4 CC x2 | x6 G,>G, | x8 | x6 (E,>F,) | x2 G,G, x4 | x6 |] %26

